X: 40963
T: Trip To Cultra, The
R: hornpipe
M: 4/4
K: Amajor
|:cdBc ABcd|e/f/e ^dfe2e=d|cdBc ABce|dB=GBd2ed|
cdBc ABcd|e/f/e ^dfe2e/f/g|aece dBGB|1 A2E2A2 ed:|2 A2E2A2 e/f/g||
|:aece aece|afdf afdf|aece aece|Bece Bece|
aece aece|afdf afdf|eagf e/f/e d/c/B|1 A/B/A GB A2 e/f/g:|2 A/B/A GB A2 AB||
|:cBcd ecAc|dcde fdBd|cBcd ecAc|B2 GB E2 GB|
cBcd ecAc|dcde f2=gf|eagf edcB|1 A/B/A G2 A2 AB:|2 A/B/A G2A4||
|:EAce aece|FAdf afdf|EAce aece|dece Bece|
EAce aece|FAdf afdf|eagf e/f/e d/c/B|1 A/B/A GBA4:|2 A/B/A GB A2e/f/g||
|:agab aece|agab afdf|agab aece|B2 ce B2 ce|
agab aece|agab afdf|eagf e/f/e d/c/B|1 A2 G2 A2 e/f/g:|2 A2G2A4||

